src/assets/img/providers/atmosfera.svg

<svg width="152" height="24" viewBox="0 0 152 24" fill="none" xmlns="http://www.w3.org/2000/svg">
<g clip-path="url(#clip0_4132_8282)">
<path fill-rule="evenodd" clip-rule="evenodd" d="M28.7029 12.2187L30.1 15.3224C25.8031 15.0447 21.4394 14.9058 17.008 14.9058C12.55 14.911 8.16571 15.049 3.85428 15.3224L5.25314 12.223C9.154 11.9967 13.072 11.8853 17.008 11.8887C20.944 11.8913 24.8423 12.0018 28.7029 12.2187ZM23.2429 0.0978337L23.8 1.33041C21.5517 1.25498 19.3094 1.20783 17.0089 1.20783C14.7083 1.20783 12.4266 1.25498 10.1586 1.33041L10.7149 0.100405C12.8234 0.0344051 14.9209 0.000976562 17.0089 0.000976562C19.0969 0.000976562 21.1746 0.033548 23.2429 0.0978337ZM24.7891 3.53669L27.5611 9.68412C24.0974 9.50326 20.5797 9.41326 17.0089 9.41326C13.438 9.41326 9.90057 9.50498 6.39742 9.68926L9.16942 3.53669C11.7871 3.43641 14.4006 3.38755 17.0089 3.39098C19.6171 3.39355 22.2109 3.44241 24.7891 3.53669ZM23.5583 21.1733C26.7271 21.2727 29.8626 21.4433 32.9654 21.6876L33.8123 23.5681C30.7026 23.3076 27.5534 23.1207 24.3657 23.0076L23.5583 21.1733ZM17.0089 17.0907C21.7686 17.0907 26.4683 17.2476 31.1097 17.5621L31.954 19.4384C27.0606 19.0741 22.0789 18.8916 17.0089 18.8916C11.92 18.8958 6.91857 19.0836 2.00457 19.453L2.84885 17.5673C7.52885 17.2493 12.2491 17.0907 17.0089 17.0907ZM9.58 23.0093C6.394 23.1258 3.24828 23.3136 0.142853 23.5733L0.992281 21.6876C4.10542 21.445 7.24085 21.2744 10.3969 21.175L9.58 23.0093ZM54.5637 16.1345L50.6912 7.56303H46.2383L42.3786 16.1336H45.6872L46.3386 14.6893H50.5986L51.25 16.1345H54.5637ZM49.5717 12.2165H47.3466L48.4514 9.96218L49.5717 12.2165ZM64.72 7.54418H53.3209V10.3727H57.6194V16.1336H60.46V10.3727H64.72V7.54418ZM71.3055 16.1336H73.6729L75.8877 12.339V16.1336H78.7497V7.54418H75.3177L72.5269 12.3013L69.7335 7.54418H66.3109V16.1336H69.1754V12.3622L71.3055 16.1336ZM87.9957 7.53218C87.3117 7.44046 86.6217 7.39675 85.9317 7.40275C84.0014 7.40275 82.5632 7.74818 81.616 8.43818C80.6697 9.12732 80.1957 10.191 80.1957 11.6267C80.1957 13.1799 80.6569 14.325 81.5783 15.0639C82.4997 15.8027 83.9783 16.1713 86.014 16.1713C86.7323 16.1782 87.4514 16.1336 88.1637 16.0376C88.7329 15.9613 89.29 15.8105 89.8206 15.5893C90.2714 15.4085 90.676 15.1273 91.0043 14.7699C91.3163 14.4065 91.5494 13.9839 91.6909 13.527C91.8615 12.963 91.9412 12.3759 91.9275 11.787C91.9403 11.187 91.8477 10.5887 91.6549 10.0196C91.4972 9.55246 91.2392 9.1256 90.8997 8.76818C90.5449 8.41675 90.1197 8.14332 89.6526 7.96589C89.1203 7.75503 88.5632 7.60932 87.9957 7.53218ZM88.0592 13.383C87.5843 13.7336 86.9114 13.9085 86.0406 13.9085C85.1577 13.9085 84.4874 13.725 84.0357 13.3265C83.5849 12.9399 83.3354 12.369 83.3586 11.7776C83.3534 11.4725 83.4083 11.169 83.5197 10.8845C83.6243 10.6239 83.7906 10.3925 84.004 10.2107C84.2474 10.0102 84.5312 9.86532 84.8354 9.78646C85.2169 9.68789 85.6086 9.6416 86.0029 9.64675C86.836 9.64675 87.52 9.82846 88.0189 10.1936C88.522 10.5613 88.804 11.157 88.7697 11.7776C88.7697 12.4967 88.5332 13.0299 88.0592 13.383ZM100.49 7.61703C99.9417 7.58018 99.2817 7.56303 98.5103 7.56303C98.0535 7.56303 97.6677 7.56989 97.3335 7.5776C97 7.58446 96.6657 7.59903 96.3203 7.62475C95.9749 7.65046 95.6886 7.68303 95.452 7.72332C95.212 7.76446 94.9746 7.82018 94.7414 7.89132C94.5383 7.94446 94.3454 8.03189 94.1714 8.14846C94.018 8.25218 93.8783 8.37303 93.7523 8.50846C93.6212 8.6456 93.5166 8.80503 93.4446 8.97989C93.3657 9.17789 93.3083 9.3836 93.2715 9.59275C93.2286 9.84732 93.208 10.1053 93.2097 10.3633C93.2089 10.5845 93.2354 10.8047 93.2903 11.019C93.3374 11.2016 93.3983 11.3799 93.4754 11.5513C93.55 11.7185 93.6657 11.8625 93.8114 11.9739C93.9726 12.0965 94.1192 12.2019 94.2537 12.2919C94.4432 12.4025 94.6497 12.4822 94.8649 12.5276C95.134 12.5979 95.3637 12.6545 95.5626 12.699C95.7615 12.7445 96.0503 12.7933 96.4317 12.8362C96.8123 12.879 97.1329 12.9116 97.39 12.9373C97.648 12.9639 98.0294 12.9965 98.5026 13.0367C98.8077 13.0625 99.1866 13.0907 99.646 13.1242C100.033 13.1396 100.42 13.1756 100.803 13.2322C100.943 13.2656 101.011 13.3367 101.011 13.4396C101.011 13.6187 100.912 13.7242 100.709 13.7585C100.143 13.8065 99.5749 13.8236 99.0066 13.8099H98.7109C98.1477 13.8099 97.7106 13.8005 97.402 13.7842C97.1629 13.7773 96.9237 13.7439 96.6923 13.6847C96.5646 13.6659 96.4489 13.5999 96.3674 13.5013C96.316 13.4027 96.2929 13.2939 96.2989 13.1825H93.3383C93.3383 13.5107 93.3494 13.7936 93.3734 14.0293C93.3957 14.2582 93.4454 14.4836 93.52 14.7005C93.6332 15.0879 93.8997 15.411 94.2589 15.5962C94.4672 15.7153 94.69 15.8062 94.9214 15.8679C95.2274 15.9416 95.5386 15.9939 95.8515 16.0256C96.1905 16.0623 96.5565 16.0827 96.9432 16.1041C96.9808 16.1062 97.0186 16.1083 97.0566 16.1105C97.4852 16.1345 97.996 16.1345 98.5849 16.1345C99.4472 16.1345 100.167 16.1225 100.745 16.0916C101.262 16.0702 101.778 16.0153 102.288 15.927C102.652 15.8705 103.007 15.7693 103.346 15.627C103.588 15.519 103.801 15.3527 103.963 15.1436C104.122 14.9353 104.232 14.6936 104.283 14.4365C104.343 14.1185 104.37 13.7945 104.364 13.4705C104.386 13.035 104.311 12.6005 104.143 12.1976C103.921 11.7639 103.429 11.4579 102.667 11.2779C102.084 11.1347 100.711 10.9779 98.5454 10.8065C98.536 10.7987 98.5232 10.7945 98.5103 10.7953C97.4183 10.7053 96.7635 10.6445 96.5474 10.6067C96.3315 10.569 96.2114 10.4979 96.2114 10.3925C96.202 10.287 96.2543 10.1867 96.346 10.1353C96.5517 10.0599 96.7669 10.0179 96.9855 10.0102C97.3214 9.97846 97.8546 9.96303 98.5832 9.96303C99.1326 9.96303 99.5775 9.97675 99.9109 10.0059C100.164 10.0162 100.412 10.0659 100.65 10.1516C100.768 10.1945 100.873 10.269 100.952 10.3659C101.001 10.461 101.024 10.5682 101.018 10.6745H104.07C104.077 10.3059 104.043 9.93818 103.97 9.57646C103.908 9.28503 103.788 9.00818 103.618 8.76303C103.455 8.52132 103.237 8.3216 102.981 8.18018C102.656 8.01389 102.31 7.89303 101.952 7.82018C101.471 7.71389 100.982 7.64618 100.49 7.61703ZM115.212 7.52532H105.949V16.1336H108.825V13.4919H113.825V10.9693H108.821V10.137H115.212V7.52532ZM126.448 7.54418H116.918V16.1336H126.448V13.737H119.783V12.9656H126.029V10.6839H119.783V9.92532H126.448V7.54418ZM134.623 7.54418H128.277L128.278 7.54503V16.1336H131.13V14.1013H133.735L135.209 16.1242H138.523L136.752 13.5905C137.809 13.0119 138.337 12.0442 138.337 10.6865C138.343 10.3016 138.287 9.91846 138.172 9.55075C138.08 9.25332 137.938 8.97303 137.753 8.72275C137.58 8.50846 137.371 8.32332 137.138 8.17589C136.922 8.03018 136.689 7.91103 136.444 7.82275C136.207 7.73875 135.965 7.67703 135.717 7.63589C135.452 7.59132 135.252 7.56818 135.097 7.55618C134.943 7.54418 134.787 7.54418 134.623 7.54418ZM135.421 10.7833C135.421 11.3225 135.066 11.5916 134.354 11.5916H131.144V10.0479H134.305C135.049 10.0479 135.421 10.293 135.421 10.7833ZM151.396 16.1345L147.522 7.56303H143.071L139.211 16.1336H142.515L143.169 14.6893H147.429L148.083 16.1345H151.396ZM146.402 12.2165H144.177L145.285 9.96218L146.402 12.2165Z" fill="#919EAB"/>
</g>
<defs>
<clipPath id="clip0_4132_8282">
<rect width="151.714" height="24" fill="white" transform="translate(0.142853 0.000976562)"/>
</clipPath>
</defs>
</svg>

<svg width="152" height="24" fill="none" xmlns="http://www.w3.org/2000/svg"><g clip-path="url(#a)"><path fill-rule="evenodd" clip-rule="evenodd" d="m28.703 12.219 1.397 3.103c-4.297-.277-8.66-.416-13.092-.416-4.458.005-8.842.143-13.154.416l1.4-3.099c3.9-.226 7.818-.338 11.754-.334 3.936.002 7.834.113 11.695.33ZM23.243.098 23.8 1.33c-2.248-.075-4.49-.122-6.791-.122-2.3 0-4.582.047-6.85.122L10.715.1A201.146 201.146 0 0 1 23.243.098Zm1.546 3.439 2.772 6.147c-3.464-.18-6.981-.27-10.552-.27-3.571 0-7.108.091-10.612.275L9.17 3.537c2.618-.1 5.232-.15 7.84-.146 2.608.003 5.202.051 7.78.146Zm-1.23 17.636c3.168.1 6.304.27 9.406.515l.847 1.88c-3.11-.26-6.259-.447-9.446-.56l-.808-1.835Zm-6.55-4.082c4.76 0 9.46.157 14.1.471l.845 1.876a201.268 201.268 0 0 0-14.945-.546c-5.089.004-10.09.192-15.004.561l.844-1.886c4.68-.318 9.4-.476 14.16-.476ZM9.58 23.009a201.66 201.66 0 0 0-9.437.564l.85-1.885c3.112-.243 6.248-.414 9.404-.513l-.817 1.834Zm44.984-6.875L50.69 7.563h-4.453l-3.86 8.57h3.31l.65-1.444h4.26l.652 1.445h3.314Zm-4.992-3.918h-2.225l1.104-2.254 1.12 2.255ZM64.72 7.545h-11.4v2.829h4.3v5.76h2.84v-5.76h4.26V7.544Zm6.585 8.59h2.368l2.215-3.795v3.795h2.862v-8.59h-3.432l-2.791 4.757-2.793-4.757H66.31v8.59h2.864v-3.772l2.13 3.772Zm16.69-8.602a14.58 14.58 0 0 0-2.063-.13c-1.93 0-3.369.346-4.316 1.036-.946.69-1.42 1.753-1.42 3.189 0 1.553.46 2.698 1.382 3.437.922.739 2.4 1.107 4.436 1.107.718.007 1.437-.037 2.15-.133a6.578 6.578 0 0 0 1.657-.449c.45-.18.855-.462 1.183-.82.312-.363.545-.785.687-1.242.17-.564.25-1.151.236-1.74.013-.6-.08-1.198-.272-1.767a3.393 3.393 0 0 0-.755-1.252 3.578 3.578 0 0 0-1.247-.802 7.097 7.097 0 0 0-1.657-.434Zm.064 5.851c-.475.35-1.148.526-2.018.526-.883 0-1.554-.184-2.005-.583-.451-.386-.7-.957-.677-1.548a2.34 2.34 0 0 1 .16-.894c.105-.26.272-.492.485-.673.243-.2.527-.346.831-.425a4.43 4.43 0 0 1 1.168-.14c.833 0 1.517.182 2.016.548.503.367.785.963.75 1.584 0 .719-.236 1.252-.71 1.605Zm12.431-5.766a30.254 30.254 0 0 0-1.98-.054c-.457 0-.842.007-1.177.015-.333.006-.667.021-1.013.047a9.438 9.438 0 0 0-.868.098c-.24.041-.477.097-.71.168a1.88 1.88 0 0 0-.57.257 2.436 2.436 0 0 0-.42.36 1.52 1.52 0 0 0-.307.472 3.113 3.113 0 0 0-.173.613 4.461 4.461 0 0 0-.062.77c-.001.222.025.442.08.656.047.183.108.36.185.532.075.168.19.312.336.423.162.123.308.228.443.318.19.11.396.19.61.236.27.07.5.127.699.171.198.046.487.094.869.137a72.669 72.669 0 0 0 2.07.2c.306.027.685.055 1.144.088.387.016.774.052 1.157.108.14.034.208.105.208.208 0 .179-.099.284-.302.319-.566.047-1.134.065-1.702.05h-.296c-.563 0-1-.008-1.309-.025a3.248 3.248 0 0 1-.71-.1.52.52 0 0 1-.325-.183.614.614 0 0 1-.068-.319h-2.96c0 .329.01.612.034.847.023.23.072.455.147.671.113.388.38.711.739.896.208.12.431.21.662.272.306.074.618.126.93.158.34.036.706.057 1.092.078l.114.006c.428.024.939.024 1.528.024.862 0 1.582-.012 2.16-.042a11.945 11.945 0 0 0 1.543-.165 4.528 4.528 0 0 0 1.058-.3c.242-.108.455-.274.617-.483.159-.209.269-.45.32-.707a4.74 4.74 0 0 0 .081-.966 2.922 2.922 0 0 0-.221-1.273c-.222-.434-.714-.74-1.476-.92-.583-.143-1.956-.3-4.122-.472a.05.05 0 0 0-.035-.01c-1.092-.09-1.747-.151-1.963-.19-.215-.037-.336-.108-.336-.213a.266.266 0 0 1 .135-.258c.206-.075.42-.117.64-.125.335-.032.869-.047 1.597-.047.55 0 .995.014 1.328.043.253.01.501.06.739.146a.699.699 0 0 1 .302.214.602.602 0 0 1 .066.309h3.052a5.062 5.062 0 0 0-.1-1.099 2.25 2.25 0 0 0-.352-.813 1.843 1.843 0 0 0-.637-.583 4.016 4.016 0 0 0-1.029-.36 9.335 9.335 0 0 0-1.462-.203Zm14.722-.092h-9.263v8.609h2.876v-2.642h5v-2.523h-5.004v-.832h6.391V7.525Zm11.236.02h-9.53v8.589h9.53v-2.397h-6.665v-.771h6.246v-2.282h-6.246v-.759h6.665v-2.38Zm8.175 0h-6.346.001v8.589h2.852V14.1h2.605l1.474 2.023h3.314l-1.771-2.533c1.057-.58 1.585-1.547 1.585-2.904a3.615 3.615 0 0 0-.165-1.136 2.772 2.772 0 0 0-.419-.828 2.53 2.53 0 0 0-.615-.547 3.154 3.154 0 0 0-.694-.353 4.253 4.253 0 0 0-.727-.187 6.998 6.998 0 0 0-.62-.08c-.154-.012-.31-.012-.474-.012Zm.798 3.238c0 .54-.355.809-1.067.809h-3.21v-1.544h3.161c.744 0 1.116.245 1.116.735Zm15.975 5.351-3.874-8.571h-4.451l-3.86 8.57h3.304l.654-1.444h4.26l.654 1.445h3.313Zm-4.994-3.918h-2.225l1.108-2.254 1.117 2.255Z" fill="#919EAB"/></g><defs><clipPath id="a"><path fill="#fff" transform="translate(.143 .001)" d="M0 0h151.714v24H0z"/></clipPath></defs></svg>
